svgs/mydealz.svg

<svg id="vector" xmlns="http://www.w3.org/2000/svg" width="24" height="24" viewBox="0 0 24 24"><path fill="#FF000000" d="M21.9175,11.5925c-0.4941,-2.701 -2.174,-3.5903 -3.3927,-3.4915a3.5025,3.5025 0,0 0,-2.0752 1.1529A7.9398,7.9398 0,0 0,15.44 8.7274a2.9232,2.9232 0,0 0,-2.0558 0.2215l-0.0561,0.031a3.4619,3.4619 0,0 0,-1.567 1.6806l-0.0022,-0.0013 -0.0012,0.0032a3.6023,3.6023 0,0 1,-1.1179 -0.5028,3.7444 3.7444,0 1,1 -0.6462,-4.3157 3.0829,3.0829 0,0 1,1.6139 -1.103,2.9716 2.9716,0 0,1 2.0939,0.1718 3.0404,3.0404 0,0 0,-2.5549 -1.5879,2.9444 2.9444,0 0,0 -1.9763,0.5929C7.7208,2.9295 4.7233,3.3248 3.274,5.2023c-1.2846,1.6799 -1.7787,4.2162 -0.6258,7.6748 1.4164,4.2162 5.7314,6.9172 8.4983,7.576 2.6915,0.6117 5.3232,0.0556 6.1079,-2.5317a2.2721,2.2721 0,0 1,-0.2696 0.0114,1.8843 1.8843,0 0,1 -1.187,-0.3828 2.7564,2.7564 0,0 1,-1.5551 1.355c-1.8117,0.6917 -4.7103,-0.8564 -5.5338,-2.3716 -0.9223,-1.6799 -0.7576,-3.228 0.0329,-3.4915 0.3579,-0.1044 0.5283,0.0493 0.8382,0.3479a10.3343,10.3343 0,0 0,6.3907 2.452l0.0177,-0.0001 0.0003,0.0013a19.2471,19.2471 0,0 0,3.6055 -0.049A3.4895,3.4895 0,0 0,21.9175 11.5925ZM14.9674,12.6795a0.8612,0.8612 0,0 1,-0.9552 -0.7576,0.8027 0.8027,0 0,1 0.7905,-0.8894 0.9017,0.9017 0,0 1,0.9552 0.7576A0.8027,0.8027 0,0 1,14.9674 12.6795ZM19.2494,12.2513a0.7551,0.7551 0,0 1,-0.8564 -0.6588,0.7965 0.7965,0 1,1 0.8564,0.6588Z" id="path_0"/><path fill="#FF000000" d="M18.1797,16.385a1.1185,1.1185 0,0 1,-1.1925 1.0068,0.9906 0.9906,0 0,1 -1.0886,-1.0352A9.6918,9.6918 0,0 0,18.1797 16.385Z" id="path_1"/><path fill="#FF000000" d="M9.7301,15.1829a0.9086,0.9086 0,0 0,1.2109 -0.221,6.5573 6.5573,0 0,1 -1.4804,-1.0127A0.986,0.986 0,0 0,9.7301 15.1829Z" id="path_2"/><path fill="#FF000000" d="M11.7393,16.5993a1.247,1.247 0,0 0,1.5043 -0.6925,11.0379 11.0379,0 0,1 -1.6031,-0.5592c-0.0449,-0.0195 -0.0829,-0.0387 -0.1261,-0.0582 -0.0988,-0.0433 -0.1967,-0.0883 -0.2928,-0.1351l-0.0522,-0.026c-0.0296,-0.0147 -0.0597,-0.0291 -0.0888,-0.0442C10.9817,15.4464 11.0476,16.3687 11.7393,16.5993Z" id="path_3"/><path fill="#FF000000" d="M14.3086,17.3436a1.2829,1.2829 0,0 0,1.3166 -1.0105,10.5768 10.5768,0 0,1 -2.2067,-0.3329A1.1443,1.1443 0,0 0,14.3086 17.3436Z" id="path_4"/><path fill="#FF000000" d="M14.9309,6.9882a2.6223,2.6223 0,0 0,-2.529 -1.9398,2.6537 2.6537,0 0,0 -0.6884,0.0914A2.5959,2.5959 0,0 0,10.2579 6.1508,3.7543 3.7543,0 0,1 10.8121,9.762a2.6766,2.6766 0,0 0,0.842 0.4381A3.4664,3.4664 0,0 1,13.169 8.6914l0.0556,-0.0307a3.4666,3.4666 0,0 1,1.7057 -0.3579A2.6803,2.6803 0,0 0,14.9309 6.9882ZM12.7275,8.3645A0.7905,0.7905 0,1 1,13.518 7.574,0.8015 0.8015,0 0,1 12.7275,8.3645Z" id="path_5"/><path fill="#FF000000" d="M10.652,8.1914a3.3444,3.3444 0,0 0,-3.5981 -3.055L7.02,5.1364a3.3391,3.3391 0,1 0,3.632 3.055ZM7.4573,9.5174a1.0211,1.0211 0,1 1,1.0211 -1.0211A1.0262,1.0262 0,0 1,7.4572 9.5173Z" id="path_6"/></svg>

<svg xmlns="http://www.w3.org/2000/svg" width="24" height="24" viewBox="0 0 24 24"><path d="M21.918 11.593c-.495-2.701-2.174-3.59-3.393-3.492a3.502 3.502 0 0 0-2.075 1.153 7.94 7.94 0 0 0-1.01-.527 2.923 2.923 0 0 0-2.056.222l-.056.03a3.462 3.462 0 0 0-1.567 1.681h-.002l-.001.002a3.602 3.602 0 0 1-1.118-.502 3.744 3.744 0 1 1-.646-4.316 3.083 3.083 0 0 1 1.613-1.103 2.972 2.972 0 0 1 2.094.172 3.04 3.04 0 0 0-2.555-1.588 2.944 2.944 0 0 0-1.976.593c-1.45-.988-4.447-.593-5.896 1.284-1.285 1.68-1.779 4.217-.626 7.675 1.417 4.216 5.732 6.917 8.498 7.576 2.692.612 5.324.056 6.108-2.532a2.272 2.272 0 0 1-.27.012 1.884 1.884 0 0 1-1.186-.383 2.756 2.756 0 0 1-1.555 1.355c-1.812.692-4.71-.856-5.534-2.372-.922-1.68-.758-3.228.033-3.491.358-.104.528.05.838.348a10.334 10.334 0 0 0 6.39 2.452h.018v.001a19.247 19.247 0 0 0 3.606-.049 3.49 3.49 0 0 0 2.324-4.201Zm-6.95 1.087a.861.861 0 0 1-.956-.758.803.803 0 0 1 .79-.89.902.902 0 0 1 .956.758.803.803 0 0 1-.79.89Zm4.281-.429a.755.755 0 0 1-.856-.658.797.797 0 1 1 .856.658Z"/><path d="M18.18 16.385a1.119 1.119 0 0 1-1.193 1.007.99.99 0 0 1-1.089-1.035 9.692 9.692 0 0 0 2.282.028Zm-8.45-1.202a.909.909 0 0 0 1.211-.221 6.557 6.557 0 0 1-1.48-1.013.986.986 0 0 0 .269 1.234Zm2.01 1.417a1.247 1.247 0 0 0 1.504-.693 11.038 11.038 0 0 1-1.603-.56c-.045-.019-.083-.038-.127-.058a7.985 7.985 0 0 1-.292-.135l-.053-.026-.088-.044c-.1.362-.033 1.285.658 1.515Zm2.569.744a1.283 1.283 0 0 0 1.316-1.01A10.577 10.577 0 0 1 13.418 16a1.144 1.144 0 0 0 .89 1.344Zm.621-10.356a2.622 2.622 0 0 0-2.528-1.94 2.654 2.654 0 0 0-.688.092 2.596 2.596 0 0 0-1.456 1.01 3.754 3.754 0 0 1 .554 3.612 2.677 2.677 0 0 0 .842.438 3.466 3.466 0 0 1 1.515-1.509l.056-.03a3.467 3.467 0 0 1 1.705-.358 2.68 2.68 0 0 0 0-1.315Zm-2.203 1.376a.79.79 0 1 1 .791-.79.802.802 0 0 1-.79.79Z"/><path d="M10.652 8.191a3.344 3.344 0 0 0-3.598-3.055H7.02a3.34 3.34 0 1 0 3.632 3.055ZM7.457 9.517a1.021 1.021 0 1 1 1.021-1.02 1.026 1.026 0 0 1-1.02 1.02Z"/></svg>
